X:025 
T:Brother's Pipes* (reel) 
S:Sean Reid < Bro. Gildas
F:file ID: cre.4/025bro_p
B:CRE4.183: gan ainm
L:1/8
Q:180
M:4/4
R:reel
K:D
FG|A2DF A2DF|A2AF G2FG|ADDE FGAB|=cBcA G2FG|
A2 DF A2 DF|A2 AF G2 FG|ADDE FGAB|=cBcA G2 (3AB^c ||
d2 fd cd e2|BcdB AGFA|d2 fd cd e2|BcdB A2 (3ABc|
d2 fd cd e2|BcdB AGFA|d2 ef gfge|dBAG FABc |]

%%%

